src/assets/duotone/Civic.svg

<svg width="24" height="24" viewBox="0 0 24 24"  xmlns="http://www.w3.org/2000/svg">
<path d="M14.3001 10.1305C14.5801 11.2305 14.0901 12.2505 13.2501 12.7705V14.7505C13.2501 15.4405 12.6901 16.0005 12.0001 16.0005C11.3101 16.0005 10.7501 15.4405 10.7501 14.7505V12.7705C10.0701 12.3505 9.62012 11.6005 9.62012 10.7505C9.62012 9.23055 11.0601 8.05055 12.6401 8.47055C13.4401 8.68055 14.0901 9.33055 14.3001 10.1305Z" />
<path opacity="0.4" d="M12 22.75C6.07 22.75 1.25 17.93 1.25 12C1.25 6.07 6.07 1.25 12 1.25C16.74 1.25 20.86 4.29 22.27 8.8C22.39 9.2 22.17 9.62 21.78 9.74C21.38 9.86 20.96 9.64 20.84 9.25C19.63 5.36 16.08 2.75 12.01 2.75C6.90999 2.75 2.75999 6.9 2.75999 12C2.75999 17.1 6.90999 21.25 12.01 21.25C16.07 21.25 19.62 18.65 20.83 14.78C20.95 14.38 21.37 14.17 21.77 14.29C22.17 14.41 22.38 14.84 22.26 15.23C20.84 19.73 16.72 22.75 12 22.75Z" />
</svg>

<?xml version="1.0" encoding="UTF-8"?>
<svg width="24" height="24" viewBox="0 0 24 24" xmlns="http://www.w3.org/2000/svg">
 <path d="m14.3 10.13c0.28 1.1-0.21 2.12-1.05 2.64v1.98c0 0.69-0.56 1.25-1.25 1.25s-1.25-0.56-1.25-1.25v-1.98c-0.68-0.42-1.13-1.17-1.13-2.02 0-1.52 1.44-2.7 3.02-2.28 0.8 0.21 1.45 0.86 1.66 1.66z"/>
 <path d="m12 22.75c-5.93 0-10.75-4.82-10.75-10.75s4.82-10.75 10.75-10.75c4.74 0 8.86 3.04 10.27 7.55 0.12 0.4-0.1 0.82-0.49 0.94-0.4 0.12-0.82-0.1-0.94-0.49-1.21-3.89-4.76-6.5-8.83-6.5-5.1 0-9.25 4.15-9.25 9.25s4.15 9.25 9.25 9.25c4.06 0 7.61-2.6 8.82-6.47 0.12-0.4 0.54-0.61 0.94-0.49s0.61 0.55 0.49 0.94c-1.42 4.5-5.54 7.52-10.26 7.52z" opacity=".4"/>
</svg>
